!!!COM:	Martini, Johannes
!!!CDT:	~1440///-~1497//
!!!OTL:	Deus in nomine tuo
!!!AGN:	Motet
!!!SCT:	Mar2022
!!!SCA:	Mar2022
!!!voices:	3
**kern	**kern	**kern
*staff3	*staff2	*staff1
*Ivox	*Ivox	*Ivox
*I"Tenor	*I"Faulx bourdon	*I"Superius
*I'T	*I'Fb	*I'S
*>[A,B,C,D,E,F,G]	*>[A,B,C,D,E,F,G]	*>[A,B,C,D,E,F,G]
*>A	*>A	*>A
*clefGv2	*clefGv2	*clefG2
*k[b-]	*k[]	*k[]
*M2/1	*M2/1	*M2/1
*met(C)	*met(C)	*met(C)
=1-	=1-	=1-
!!LO:TX:Z=8:t=Choir 1
!!section: Et in virtute tua
!!!OMD: Et in virtute tua
1A	1e	1a
1c	1e	1a
=2	=2	=2
2c\	2e\	2a/
2c\	2e\	2a/
2c\	2e\	2a/
2c\	2e\	2a/
=3	=3	=3
1c	1e	1a
1B-	1d	1g
=4	=4	=4
2c\	2e\	2a/
1d	1f	1b-i
4c\	4e\	4a/
4B-\	4d\	4g/
=5	=5	=5
2A/	2c\	2f/
1B-	1d	1g
2A/	[2c\	[2f/
=6	=6	=6
1G	2c\]	2f/]
.	2B\	2e/
1Fl	1cl	1fl
=7||	=7||	=7||
*>B	*>B	*>B
!!LO:TX:Z=8:t=Choir 2
!!section: Deus, exaudi
!!!OMD: Deus, exaudi
1A	0r	1a
1c	.	1a
=8	=8	=8
2c\	0r	2a/
2c\	.	2a/
1c	.	1a
=9	=9	=9
1c	0r	1a
2c\	.	2a/
2c\	.	2a/
=10	=10	=10
2B-\	0r	2g/
2A/	.	2f/
1B-	.	1g
=11	=11	=11
1A	0r	1a
1r	.	1r
=12	=12	=12
2c\	0r	2a/
1c	.	1a
2c\	.	2a/
=13	=13	=13
2c\	0r	2a/
2c\	.	2a/
1c	.	1a
=14	=14	=14
1B-	0r	1g
1c	.	1a
=15	=15	=15
2d\	0r	2b-i\
2c\	.	2a/
2B-\	.	2g/
[2c\	.	[2a/
=16	=16	=16
2c\]	0r	2a/]
2A/	.	1f
1G	.	.
.	.	2e/
=17	=17	=17
0Fl	0r	0fl
=18||	=18||	=18||
*>C	*>C	*>C
!!LO:TX:Z=8:t=Choir 1
!!section: Quoniam alieni
!!!OMD: Quoniam alieni
2c\	2e\	2a/
2c\	2e\	2a/
1c	1e	1a
=19	=19	=19
1c	1e	1a
2c\	2e\	2a/
2c\	2e\	2a/
=20	=20	=20
1c	1e	1a
2c\	2e\	2a/
2c\	2e\	2a/
=21	=21	=21
2c\	2e\	2a/
2c\	2e\	2a/
1c	1e	1a
=22	=22	=22
2c\	2e\	2a/
1c	1e	1a
2c\	2e\	2a/
=23	=23	=23
1B-	1d	1g
2r	2r	2r
[2c\	[2e\	[2a/
=24	=24	=24
2c\]	2e\]	2a/]
2c\	2e\	2a/
1c	1e	1a
=25	=25	=25
2c\	2e\	2a/
2c\	2e\	2a/
1c	1e	1a
=26	=26	=26
1c	1e	1a
2c\	2e\	2a/
2B-\	2d\	2g/
=27	=27	=27
2c\	2e\	2a/
1d	1f	1b-i
2c\	[2e\	[2a/
=28	=28	=28
1B-	2e\]	2a/]
.	2d\	2g/
1A	1e	1a
=29	=29	=29
1r	1r	1r
1c	1e	1a
=30	=30	=30
1c	1e	1a
2c\	2e\	2a/
2c\	2e\	2a/
=31	=31	=31
2c\	2e\	2a/
2c\	2e\	2a/
1c	1e	1a
=32	=32	=32
1B-	1d	1g
1A	1e	1a
=33	=33	=33
1B-	1d	1g
2c\	2e\	2a/
[2d\	[2f\	[2b-i\
=34	=34	=34
2d\]	2f\]	2b-\]
4c\	4e\	4a/
4B-\	4d\	4g/
2A/	2c\	2f/
[2G/	[2d\	[2g/
=35	=35	=35
2G/]	2d\]	2g/]
2A/	1c	1f
1G	.	.
.	2B\	2e/
=36	=36	=36
0Fl	0cl	0fl
=37||	=37||	=37||
*>D	*>D	*>D
!!section: Ecce enim
!!!OMD: Ecce enim
!!LO:TX:Z=8:t=Choir 2
1A	0r	1a
1c	.	1a
=38	=38	=38
2c\	0r	2a/
2c\	.	2a/
1c	.	1a
=39	=39	=39
1c	0r	1a
2c\	.	2a/
[2d\	.	[2b-i\
=40	=40	=40
2d\]	0r	2b-\]
2c\	.	1a
1B-	.	.
.	.	2g/
=41	=41	=41
1A	0r	1a
1r	.	1r
=42	=42	=42
1c	0r	1a
2c\	.	2a/
2c\	.	2a/
=43	=43	=43
1c	0r	1a
1c	.	1a
=44	=44	=44
2c\	0r	2a/
2c\	.	2a/
1c	.	1a
=45	=45	=45
1B-	0r	1g
2c\	.	2a/
2d\	.	2b-i\
=46	=46	=46
2c\	0r	2a/
1B-	.	1g
2A/	.	[2f/
=47	=47	=47
1G	0r	2f/]
.	.	2e/
1Fl	.	1fl
=48||	=48||	=48||
*>E	*>E	*>E
!!section: Averte mala
!!!OMD: Averte mala
!!LO:TX:Z=8:t=Choir 1
1c	1e	1a
1B-	1d	1g
=49	=49	=49
1c	1e	1a
2c\	2e\	2a/
2c\	2e\	2a/
=50	=50	=50
1c	1e	1a
2c\	2e\	2a/
2c\	2e\	2a/
=51	=51	=51
2B-\	2d\	2g/
2c\	2e\	2a/
1d	1f	1b-i
=52	=52	=52
1A	1e	1a
1r	1r	1r
=53	=53	=53
1c	1e	1a
1c	1e	1a
=54	=54	=54
1c	1e	1a
2c\	2e\	2a/
2c\	2e\	2a/
=55	=55	=55
2c\	2e\	2a/
2c\	2e\	2a/
1c	1e	1a
=56	=56	=56
1B-	1d	1g
2c\	2e\	2a/
[2d\	[2f\	[2b-i\
=57	=57	=57
2d\]	2f\]	2b-\]
4c\	4e\	4a/
4B-\	4d\	4g/
2A/	2c\	2f/
[2B-\	[2d\	[2g/
=58	=58	=58
2B-\]	2d\]	2g/]
2A/	1c	1f
1G	.	.
.	2B\	2e/
=59	=59	=59
0Fl	0cl	0fl
=60||	=60||	=60||
*>F	*>F	*>F
!!LO:TX:Z=8:t=Choir 2
!!section: Voluntarie
!!!OMD: Voluntarie
2c\	0r	2a/
2c\	.	2a/
2c\	.	2a/
2c\	.	2a/
=61	=61	=61
1c	0r	1a
1c	.	1a
=62	=62	=62
2B-\	0r	2g/
2c\	.	2a/
1d	.	1b-i
=63	=63	=63
2c\	0r	2a/
2A/	.	1a
1B-	.	.
.	.	2g/
=64	=64	=64
1A	0r	1a
1r	.	1r
=65	=65	=65
1c	0r	1a
2c\	.	2a/
2c\	.	2a/
=66	=66	=66
1c	0r	1a
1c	.	1a
=67	=67	=67
2c\	0r	2a/
2c\	.	2a/
2c\	.	2a/
2c\	.	2a/
=68	=68	=68
1A	0r	1a
2c\	.	2a/
2c\	.	2a/
=69	=69	=69
1c	0r	1a
1B-	.	1g
=70	=70	=70
1c	0r	1a
2d\	.	2b-i\
2c\	.	2a/
=71	=71	=71
2B-\	0r	2g/
1c	.	1a
2A/	.	[2f/
=72	=72	=72
1G	0r	2f/]
.	.	2e/
1Fl	.	1fl
=73||	=73||	=73||
*>G	*>G	*>G
!!section: Quoniam ex omni
!!!OMD: Quoniam ex omni
!!LO:TX:Z=8:t=Choir 1
2c\	2e\	2a/
2c\	2e\	2a/
1c	1e	1a
=74	=74	=74
2c\	2e\	2a/
2c\	2e\	2a/
1c	1e	1a
=75	=75	=75
1c	1e	1a
2c\	2e\	2a/
2c\	2e\	2a/
=76	=76	=76
2c\	2e\	2a/
2c\	2e\	2a/
1c	1e	1a
=77	=77	=77
1B-	1d	1g
2c\	2e\	2a/
[2d\	[2f\	[2b-i\
=78	=78	=78
2d\]	2f\]	2b-\]
2c\	1e	1a
1B-	.	.
.	2d\	2g/
=79	=79	=79
1A	1e	1a
1r	1r	1r
=80	=80	=80
1c	1e	1a
1c	1e	1a
=81	=81	=81
1c	1e	1a
2c\	2e\	2a/
2c\	2e\	2a/
=82	=82	=82
2c\	2e\	2a/
2c\	2e\	2a/
1c	1e	1a
=83	=83	=83
1c	1e	1a
2c\	2e\	2a/
2c\	2e\	2a/
=84	=84	=84
1c	1e	1a
1B-	1d	1g
=85	=85	=85
1c	1e	1a
2d\	2f\	2b-i\
2c\	2e\	2a/
=86	=86	=86
2B-\	2d\	2g/
1c	1e	1a
2B-\	[2d\	[2g/
=87	=87	=87
1A	2d\]	2g/]
.	2c\	2f#i/
1Gl	1dl	1gl
==	==	==
*-	*-	*-
!!!RDF**kern: l=long note in original notation
!!!RDF**kern: i=editorial accidental
!!!ENC:	Chris Gage 03-13-2014
!!!END:	2014/10/06/
!!!EED:	Jesse Rodin
!!!EEV:	2014/10/17/
!!!ONB:	Translated from MusicXML and edited on 2014/10/17/ by Craig Sapp
!!muse2ps: C^@{COM}^i2I150v85,85,150Q16
